X: 23007
T: Last Hurdle, The
R: reel
M: 4/4
K: Gmajor
DGG2 BGG2|ABcA defa|gfdB cedc|BGDE =F3E|
DGG2 BGG2|ABcA defa|gfdB cedc|1 BdcA AGGF:|2 BdcA AGBd||
g2Bd gbag|fAde f3g|eGce edBG|ADFA d2cA|
BABd cdec|dgfa gdBd|egdB cedc|BdcA AGBd|
g2Bd gbag|fAde f3g|eGce edBG|ADFA d2cA|
BABd cEAG|FEFG ADFA|BDGB c2dc|BdcA AGGF||

